src/img/icon-pdf-updated.svg

<svg fill="none" height="20" viewBox="0 0 20 20" width="20" xmlns="http://www.w3.org/2000/svg"><path d="m9.22222 6.22222c.11111 0 .11111 0 0 0 .11111-.44444.22222-.66666.22222-1v-.22222c.11112-.55556.11112-1 0-1.11111 0 0 0 0 0-.11111l-.11111-.11111s0 .11111-.11111.11111c-.22222.66666-.22222 1.44444 0 2.44444zm-3.33333 7.66668c-.22222.1111-.44445.2222-.55556.3333-.77777.6667-1.33333 1.4444-1.44444 1.7778.66667-.1111 1.33333-.7778 2-2.1111.11111 0 .11111 0 0 0zm10.22221-1.6667c-.1111-.1111-.5555-.4444-2.1111-.4444-.1111 0-.1111 0-.2222 0v.1111c.7778.3333 1.5555.5555 2.1111.5555h.2222.1111s0 0 0-.1111c0 0-.1111 0-.1111-.1111zm1.6667-12.2222h-15.55558c-1.22222 0-2.22222 1-2.22222 2.22222v15.55558c0 1.2222 1 2.2222 2.22222 2.2222h15.55558c1.2222 0 2.2222-1 2.2222-2.2222v-15.55558c0-1.22222-1-2.22222-2.2222-2.22222zm-1.2222 13.1111c-.2223.1111-.5556.2222-1 .2222-.8889 0-2.2223-.2222-3.3334-.7777-1.8889.2222-3.33331.4444-4.44442.8888-.11111 0-.11111 0-.22222.1111-1.33334 2.3334-2.44445 3.4445-3.33334 3.4445-.22222 0-.33333 0-.44444-.1112l-.55556-.3332v-.1112c-.11111-.2222-.11111-.3333-.11111-.5555.11111-.5556.77778-1.5556 2.11111-2.3334.22222-.1111.55556-.3333 1-.5555.33334-.5556.66667-1.2223 1.11111-2 .55556-1.11111.88889-2.22222 1.22223-3.22222-.44445-1.33334-.66667-2.11111-.22223-3.66667.11111-.44444.44445-.88889.88889-.88889h.22222c.22223 0 .44445.11111.66666.22222.7778.77778.4445 2.55556 0 4v.11112c.4445 1.22222 1.1111 2.22222 1.7778 2.88884.3333.2223.5555.4445 1 .6667.5555 0 1-.1111 1.4444-.1111 1.3334 0 2.2223.2222 2.5555.7778.1112.2222.1112.4444.1112.6666-.1111.1112-.2222.4445-.4444.6667zm-7.22227-4.33332c-.22222.77778-.66666 1.66662-1.11111 2.66662-.22222.4444-.44444.7778-.66666 1.2223h.11111.11111c1.44444-.5556 2.77782-.8889 3.66662-1-.2222-.1111-.3333-.2223-.4444-.3334-.5556-.6666-1.22222-1.55552-1.66667-2.55552z" fill="#3b3b3b"/></svg>

<svg width="20" height="20" viewBox="0 0 20 20" fill="none" xmlns="http://www.w3.org/2000/svg">
<path d="M9.22222 6.22222C9.33333 6.22222 9.33333 6.22222 9.22222 6.22222C9.33333 5.77778 9.44444 5.55556 9.44444 5.22222V5C9.55556 4.44444 9.55556 4 9.44444 3.88889C9.44444 3.88889 9.44444 3.88889 9.44444 3.77778L9.33333 3.66667C9.33333 3.66667 9.33333 3.77778 9.22222 3.77778C9 4.44444 9 5.22222 9.22222 6.22222ZM5.88889 13.8889C5.66667 14 5.44444 14.1111 5.33333 14.2222C4.55556 14.8889 4 15.6666 3.88889 16C4.55556 15.8889 5.22222 15.2222 5.88889 13.8889C6 13.8889 6 13.8889 5.88889 13.8889C6 13.8889 5.88889 13.8889 5.88889 13.8889ZM16.1111 12.2222C16 12.1111 15.5556 11.7778 14 11.7778C13.8889 11.7778 13.8889 11.7778 13.7778 11.7778C13.7778 11.7778 13.7778 11.7778 13.7778 11.8889C14.5556 12.2222 15.3333 12.4444 15.8889 12.4444C16 12.4444 16 12.4444 16.1111 12.4444H16.2222C16.2222 12.4444 16.2222 12.4444 16.2222 12.3333C16.2222 12.3333 16.1111 12.3333 16.1111 12.2222ZM17.7778 0H2.22222C1 0 0 1 0 2.22222V17.7778C0 19 1 20 2.22222 20H17.7778C19 20 20 19 20 17.7778V2.22222C20 1 19 0 17.7778 0ZM16.5556 13.1111C16.3333 13.2222 16 13.3333 15.5556 13.3333C14.6667 13.3333 13.3333 13.1111 12.2222 12.5556C10.3333 12.7778 8.88889 13 7.77778 13.4444C7.66667 13.4444 7.66667 13.4444 7.55556 13.5555C6.22222 15.8889 5.11111 17 4.22222 17C4 17 3.88889 17 3.77778 16.8888L3.22222 16.5556V16.4444C3.11111 16.2222 3.11111 16.1111 3.11111 15.8889C3.22222 15.3333 3.88889 14.3333 5.22222 13.5555C5.44444 13.4444 5.77778 13.2222 6.22222 13C6.55556 12.4444 6.88889 11.7777 7.33333 11C7.88889 9.88889 8.22222 8.77778 8.55556 7.77778C8.11111 6.44444 7.88889 5.66667 8.33333 4.11111C8.44444 3.66667 8.77778 3.22222 9.22222 3.22222H9.44444C9.66667 3.22222 9.88889 3.33333 10.1111 3.44444C10.8889 4.22222 10.5556 6 10.1111 7.44444C10.1111 7.55556 10.1111 7.55556 10.1111 7.55556C10.5556 8.77778 11.2222 9.77778 11.8889 10.4444C12.2222 10.6667 12.4444 10.8889 12.8889 11.1111C13.4444 11.1111 13.8889 11 14.3333 11C15.6667 11 16.5556 11.2222 16.8888 11.7778C17 12 17 12.2222 17 12.4444C16.8889 12.5556 16.7778 12.8889 16.5556 13.1111ZM9.33333 8.77778C9.11111 9.55556 8.66667 10.4444 8.22222 11.4444C8 11.8888 7.77778 12.2222 7.55556 12.6667H7.66667H7.77778C9.22222 12.1111 10.5556 11.7778 11.4444 11.6667C11.2222 11.5556 11.1111 11.4444 11 11.3333C10.4444 10.6667 9.77778 9.77778 9.33333 8.77778Z" fill="#3B3B3B"/>
</svg>
